X:89
T:I have a wife of My Own
C:Suth.p49no89
S:Sutherland, 'Music for the Bagpipe'
Z:Transcribed by Ross Anderson, www.ross-anderson.com
M:9/8
L:1/8
K:D
EFE G2AB3|EFE G2A BGE|EFE G2A (B/A/B/c/d/)|DEDd2B AFD:|
g>ag f>gf e3|EFE G2A BGE|g>ag f>gf e3|DEDd2B AFD:|
g>ag f>gf e3|EFE G2A BGE|g>ag f>gf e>fe|DED DdB AFD:|

